X:145
T:B145-  Forty-nine
Q:1/4=120
L:1/4
M:6/4
K:Gmixolydian
G|B3/2c/2dB2G|B3/2c/2dB2e|c3/2B/2A^G2A|B3A2d|\
B3/2A/2Bc3/2d/2e|f3/2e/2^cd2c|B3/2A/2GA2B|^F3E2c|\
c3/2d/2ec2G|c3/2d/2ec2A|B3/2c/2dBAG|A3/2B/2G^F2D|\
G3/2^F/2GA3/2G/2A|B3/2A/2Bc2d|e2f^c2A|d3/2e/2^cd2d|\
B3/2A/2BE^FG|A3/2G/2AD2d|e3/2d/2BcdG|A2GG3/2|]
